assets/icons/qvision/done_all.svg

<svg width="24" height="24" viewBox="0 0 24 24" fill="none" xmlns="http://www.w3.org/2000/svg">
<g clip-path="url(#clip0_147_4101)">
<path d="M18 7.00003L16.59 5.59003L10.25 11.93L11.66 13.34L18 7.00003ZM22.24 5.59003L11.66 16.17L7.48 12L6.07 13.41L11.66 19L23.66 7.00003L22.24 5.59003ZM0.410004 13.41L6 19L7.41 17.59L1.83 12L0.410004 13.41Z" fill="#323232"/>
</g>
<defs>
<clipPath id="clip0_147_4101">
<rect width="24" height="24" fill="white"/>
</clipPath>
</defs>
</svg>

<svg xmlns="http://www.w3.org/2000/svg" height="24" viewBox="0 0 24 24" width="24"><path d="M0 0h24v24H0z" fill="none"/><path d="M18 7l-1.41-1.41-6.34 6.34 1.41 1.41L18 7zm4.24-1.41L11.66 16.17 7.48 12l-1.41 1.41L11.66 19l12-12-1.42-1.41zM.41 13.41L6 19l1.41-1.41L1.83 12 .41 13.41z"/></svg>
